X:1
T: Midsommarpolska
M: 3/4
L: 1/16
C: August Strömberg
O: Jät, Småland
Q: 1/4=100
Z: Peter Svensson
R: Polska
K: D
   A2AG F2FG A2AB | A2F2 A2d2 f4   | e2ed c2cd e2c2 | d2c2 d2A2 F2A2  |
   A2AG F2FG A2AB | A2F2 A2d2 f4   | e2ed c2cd e2c2 | d4   d8        :|
|: A2Ad f2d2 f2d2 | A2Ac e2c2 e2c2 | A2Ad f2d2 f2d2 | A2Ac e2c2 e2c2  |
   A2AG F2FG A2AB | A2F2 A2d2 f4   | e2ed c2cd e2c2 | d4   d8        :|

